X: 19980
T: Jim Donoghue's
R: jig
M: 6/8
K: Emajor
K:F#dor
F3 GFE|FGB cBc|F3 dec|BGE GFE|
F3 GFE|FGB cfg|fec BGc|FGF F3:|
fcf fcf|fef g2f|efe cBc|efe cde|
fcf fcf|fef g2f|efe cBG|FGE F(3cde|
fcf fcf|fcf g2f|e2e cec|BGE GFE|
F2F GFE|FGB cfg|fec BGc|FGF FEC||

